X: 395
T: Bill Sullivan's Polka
B: jims roots
M:2/4
L:1/8
R: polka
Q: 1/4=100
K:Amaj
V:1 
A/B/ [|:"A"ce eA | "D"d>e fe | "A"ce eA/B/ | "E"cB BA/B/ |
"A"ce eA | "D"d>e fe | "A"ce "E"B/c/d/B/ | "A"cA AA/B/ :|
B/A/ | "A"a2 "D"a/b/a/f/ | "A"ec "D"a>e | "A"ce "D"a>f | "A"ec "E"BA |
"A"a2 "D"a>f | "A"ec "D"a>e | "A"ce "E"B/c/d/B/ | "A"cA AB/A/ |
"A"a2 "D"a>f | "A"ec "D"a>e | "A"ce c/e/"D"a/f/ | "A"ec "E"BA |
"A"a2 "D"a>f | "A"ec "D"a>e | "A"ce "E"B/c/d/B/ | "A"cA Ae/d/ |]
% abcbook-tune_id 6298c245252fa8e9d0c5afc8


% abcbook-boost 0
% abcbook-tablature 
% abcbook-transpose 
% abcbook-lastupdated 1654178373343
% abcbook-soundfonts 
% abcbook-repeats 1


